svg/cat.svg

<svg xmlns="http://www.w3.org/2000/svg" viewBox="0 0 24 24"><path d="m12 8-1.33.09C9.81 7.07 7.4 4.5 5 4.5c0 0-1.97 2.96-.04 6.91-.55.83-.89 1.26-.96 2.25l-1.93.29.21.98 1.76-.26.14.71-1.57.94.47.89 1.45-.89C5.68 18.76 8.59 20 12 20s6.32-1.24 7.47-3.68l1.45.89.47-.89-1.57-.94.14-.71 1.76.26.21-.98-1.93-.29c-.07-.99-.41-1.42-.96-2.25C20.97 7.46 19 4.5 19 4.5c-2.4 0-4.81 2.57-5.67 3.59zm-3 3a1 1 0 0 1 1 1 1 1 0 0 1-1 1 1 1 0 0 1-1-1 1 1 0 0 1 1-1m6 0a1 1 0 0 1 1 1 1 1 0 0 1-1 1 1 1 0 0 1-1-1 1 1 0 0 1 1-1m-4 3h2l-.7 1.39c.2.64.76 1.11 1.45 1.11a1.5 1.5 0 0 0 1.5-1.5h.5a2 2 0 0 1-2 2c-.75 0-1.4-.41-1.75-1-.35.59-1 1-1.75 1a2 2 0 0 1-2-2h.5a1.5 1.5 0 0 0 1.5 1.5c.69 0 1.25-.47 1.45-1.11z"/></svg>

<?xml version="1.0" encoding="UTF-8"?><!DOCTYPE svg PUBLIC "-//W3C//DTD SVG 1.1//EN" "http://www.w3.org/Graphics/SVG/1.1/DTD/svg11.dtd"><svg xmlns="http://www.w3.org/2000/svg" xmlns:xlink="http://www.w3.org/1999/xlink" version="1.1" id="mdi-cat" width="24" height="24" viewBox="0 0 24 24"><path d="M12,8L10.67,8.09C9.81,7.07 7.4,4.5 5,4.5C5,4.5 3.03,7.46 4.96,11.41C4.41,12.24 4.07,12.67 4,13.66L2.07,13.95L2.28,14.93L4.04,14.67L4.18,15.38L2.61,16.32L3.08,17.21L4.53,16.32C5.68,18.76 8.59,20 12,20C15.41,20 18.32,18.76 19.47,16.32L20.92,17.21L21.39,16.32L19.82,15.38L19.96,14.67L21.72,14.93L21.93,13.95L20,13.66C19.93,12.67 19.59,12.24 19.04,11.41C20.97,7.46 19,4.5 19,4.5C16.6,4.5 14.19,7.07 13.33,8.09L12,8M9,11A1,1 0 0,1 10,12A1,1 0 0,1 9,13A1,1 0 0,1 8,12A1,1 0 0,1 9,11M15,11A1,1 0 0,1 16,12A1,1 0 0,1 15,13A1,1 0 0,1 14,12A1,1 0 0,1 15,11M11,14H13L12.3,15.39C12.5,16.03 13.06,16.5 13.75,16.5A1.5,1.5 0 0,0 15.25,15H15.75A2,2 0 0,1 13.75,17C13,17 12.35,16.59 12,16V16H12C11.65,16.59 11,17 10.25,17A2,2 0 0,1 8.25,15H8.75A1.5,1.5 0 0,0 10.25,16.5C10.94,16.5 11.5,16.03 11.7,15.39L11,14Z" /></svg>
